**harmony	**harte	**kern	**silbe	**rhyme	**timestamp	**phrase
*M4/4	*M4/4	*ICvox	*	*	*	*
*	*	*VRlead	*	*	*	*
*	*	*Hstimme	*	*	*	*
*G:	*G:	*G:	*	*	*	*
*	*	*clefG2	*	*	*	*
1r;	1r	r;	.	.	0	.
=1	=1	=1	=1	=1	=1	=1
*>Letter>A	*>Letter>A	*>Letter>A	*>Letter>A	*>Letter>A	*>Letter>A	*>Letter>A
*>Label>Intro	*>Label>Intro	*>Label>Intro	*>Label>Intro	*>Label>Intro	*>Label>Intro	*>Label>Intro
1CM	C:maj	1r	.	.	0.949	newline
=2	=2	=2	=2	=2	=2	=2
1CM	C:maj	1r	.	.	2.488	.
=3	=3	=3	=3	=3	=3	=3
1DM	D:maj	1r	.	.	4.027	.
=4	=4	=4	=4	=4	=4	=4
1GM	G:maj	1r	.	.	5.566	.
=5	=5	=5	=5	=5	=5	=5
1CM	C:maj	1r	.	.	7.105	newline
=6	=6	=6	=6	=6	=6	=6
1CM	C:maj	1r	.	.	8.638	.
=7	=7	=7	=7	=7	=7	=7
1DM	D:maj	1r	.	.	10.17	.
=8	=8	=8	=8	=8	=8	=8
1GM	G:maj	1r	.	.	11.703	.
=9	=9	=9	=9	=9	=9	=9
*>Letter>B	*>Letter>B	*>Letter>B	*>Letter>B	*>Letter>B	*>Letter>B	*>Letter>B
*>Label>Interlude	*>Label>Interlude	*>Label>Interlude	*>Label>Interlude	*>Label>Interlude	*>Label>Interlude	*>Label>Interlude
1GM	G:maj	1r	.	.	13.235	newline
=10	=10	=10	=10	=10	=10	=10
1AM	A:maj/b7	1r	.	.	14.78	.
=11	=11	=11	=11	=11	=11	=11
1GM	G:maj	1r	.	.	16.324	.
=12	=12	=12	=12	=12	=12	=12
1AM	A:maj/b7	1r	.	.	17.868	.
=13	=13	=13	=13	=13	=13	=13
1GM	G:maj	1r	.	.	19.412	newline
=14	=14	=14	=14	=14	=14	=14
1AM	A:maj/b7	1r	.	.	20.956	.
=15	=15	=15	=15	=15	=15	=15
1GM	G:maj	1r	.	.	22.501	.
=16	=16	=16	=16	=16	=16	=16
1AM	A:maj/b7	1r	.	.	24.045	.
=17	=17	=17	=17	=17	=17	=17
*>Letter>C	*>Letter>C	*>Letter>C	*>Letter>C	*>Letter>C	*>Letter>C	*>Letter>C
*>Label>Verse	*>Label>Verse	*>Label>Verse	*>Label>Verse	*>Label>Verse	*>Label>Verse	*>Label>Verse
1GM	G:maj	4r	.	.	25.59	newline
.	.	8r	.	.	.	.
.	.	8G	Well	.	.	.
.	.	8B	there	.	.	.
.	.	8B	was	.	.	.
.	.	4B	no	.	.	.
=18	=18	=18	=18	=18	=18	=18
1AM	A:maj/b7	4c#	rea-	(A	27.133	.
.	.	4A	-son	a)	.	.
.	.	4A	to	.	.	.
.	.	8F#	be-	(a	.	.
.	.	[8G	-lieve	A)	.	.
=19	=19	=19	=19	=19	=19	=19
1GM	G:maj	4G]	_	.	28.677	.
.	.	8r	.	.	.	.
.	.	8G	she'd	.	.	.
.	.	4B	al-	.	.	.
.	.	4d	-ways	.	.	.
=20	=20	=20	=20	=20	=20	=20
1AM	A:maj/b7	4.c#	be	a	30.22	.
.	.	4B	there	B	.	.
.	.	4A	_	.	.	.
.	.	8r	.	.	.	.
=21	=21	=21	=21	=21	=21	=21
1GM	G:maj	8r	.	.	31.764	newline
.	.	8G	But	.	.	.
.	.	8G	if	.	.	.
.	.	8G	you	.	.	.
.	.	4B	don't	.	.	.
.	.	4d	put	.	.	.
=22	=22	=22	=22	=22	=22	=22
1AM	A:maj/b7	4c#	fait	.	33.303	.
.	.	4A	in	.	.	.
.	.	4A	what	.	.	.
.	.	8F#	you	.	.	.
.	.	8F#	be-	(a	.	.
=23	=23	=23	=23	=23	=23	=23
1GM	G:maj	8G	-lieve	A)	34.841	.
.	.	4B	in	.	.	.
.	.	4r	.	.	.	.
.	.	8G	it's	.	.	.
.	.	12d	get-	.	.	.
.	.	12d	-ting	.	.	.
.	.	12d	you	.	.	.
=24	=24	=24	=24	=24	=24	=24
1AM	A:maj/b7	4.e	no-	.	36.38	.
.	.	8c#	-where	B	.	.
.	.	8B	_	.	.	.
.	.	8A	_	.	.	.
.	.	4r	.	.	.	.
=25	=25	=25	=25	=25	=25	=25
1Am	A:min	2r	.	.	37.918	newline
.	.	4A	'Cos	.	.	.
.	.	4B	it	.	.	.
=26	=26	=26	=26	=26	=26	=26
1Bmm	B:min7	4d	hurts	.	39.468	.
.	.	4B	you	.	.	.
.	.	8A	ne-	.	.	.
.	.	8G	-ver	.	.	.
.	.	8E	let	.	.	.
.	.	[8B	go	.	.	.
=27	=27	=27	=27	=27	=27	=27
1Am	A:min/b3	2B]	_	.	41.018	.
.	.	4A	Don't	.	.	.
.	.	8B	look	.	.	.
.	.	[8e	down	.	.	.
=28	=28	=28	=28	=28	=28	=28
1DM	D:sus2(b7)	8e]	_	.	42.568	.
.	.	4.d	_	.	.	.
.	.	8r	.	.	.	.
.	.	8D	just	.	.	.
.	.	8B	look	.	.	.
.	.	[8B	up	.	.	.
=29	=29	=29	=29	=29	=29	=29
1Am	A:min	2B]	_	.	44.118	newline
.	.	4A	'Cos	.	.	.
.	.	4B	she's	.	.	.
=30	=30	=30	=30	=30	=30	=30
1Bmm	B:min7	4d	al-	.	45.655	.
.	.	4B	-ways	.	.	.
.	.	8A	there	.	.	.
.	.	8G	_	.	.	.
.	.	8E	be-	(c	.	.
.	.	[8B	-hind	C)	.	.
=31	=31	=31	=31	=31	=31	=31
1Am	A:min/b3	4.B]	_	.	47.192	.
.	.	8B	you	.	.	.
.	.	8r	.	.	.	.
.	.	4r	.	.	.	.
.	.	[8e	just	.	.	.
=32	=32	=32	=32	=32	=32	=32
1DM	D:sus2(b7)	8e]	_	.	48.729	.
.	.	8d	to	.	.	.
.	.	8B	re-	(c	.	.
.	.	4d	-mind	C)	.	.
.	.	4.d	you	.	.	.
=33	=33	=33	=33	=33	=33	=33
*>Letter>A	*>Letter>A	*>Letter>A	*>Letter>A	*>Letter>A	*>Letter>A	*>Letter>A
*>Label>Chorus	*>Label>Chorus	*>Label>Chorus	*>Label>Chorus	*>Label>Chorus	*>Label>Chorus	*>Label>Chorus
1CM	C:maj	4.B	Two	.	50.266	newline
.	.	[8A	hearts	.	.	.
.	.	2A]	_	.	.	.
=34	=34	=34	=34	=34	=34	=34
1CM	C:maj	4.r	.	.	51.809	.
.	.	8D	be-	.	.	.
.	.	8G	-liev-	.	.	.
.	.	8G	-ing	.	.	.
.	.	4F#	in	.	.	.
=35	=35	=35	=35	=35	=35	=35
1DM	D:maj	2A	just	.	53.353	.
.	.	4.A	one	.	.	.
.	.	[8B	mind	C	.	.
=36	=36	=36	=36	=36	=36	=36
1GM	G:maj	2B]	_	.	54.897	.
.	.	6G	You	.	.	.
.	.	6A	know	.	.	.
.	.	6B	we're	.	.	.
=37	=37	=37	=37	=37	=37	=37
1CM	C:maj	4.B	two	.	56.44	newline
.	.	[8A	hearts	.	.	.
.	.	2A]	_	.	.	.
=38	=38	=38	=38	=38	=38	=38
1CM	C:maj	2r	.	.	57.976	.
.	.	8G	Liv-	.	.	.
.	.	8G	-ing	.	.	.
.	.	4F#	in	.	.	.
=39	=39	=39	=39	=39	=39	=39
1DM	D:maj	2A	just	.	59.512	.
.	.	4.d	one	.	.	.
.	.	8B	mind	C	.	.
=40	=40	=40	=40	=40	=40	=40
1GM	G:maj	8A	_	.	61.048	.
.	.	4.G	_	.	.	.
.	.	2r	.	.	.	.
=41	=41	=41	=41	=41	=41	=41
*>Letter>B	*>Letter>B	*>Letter>B	*>Letter>B	*>Letter>B	*>Letter>B	*>Letter>B
*>Label>Interlude	*>Label>Interlude	*>Label>Interlude	*>Label>Interlude	*>Label>Interlude	*>Label>Interlude	*>Label>Interlude
1GM	G:maj	1r	.	.	62.584	newline
=42	=42	=42	=42	=42	=42	=42
1AM	A:maj/b7	1r	.	.	64.132	.
=43	=43	=43	=43	=43	=43	=43
1GM	G:maj	1r	.	.	65.681	.
=44	=44	=44	=44	=44	=44	=44
1AM	A:maj/b7	1r	.	.	67.229	.
=45	=45	=45	=45	=45	=45	=45
1GM	G:maj	1r	.	.	68.778	newline
=46	=46	=46	=46	=46	=46	=46
1AM	A:maj/b7	1r	.	.	70.31	.
=47	=47	=47	=47	=47	=47	=47
1GM	G:maj	1r	.	.	71.843	.
=48	=48	=48	=48	=48	=48	=48
1AM	A:maj/b7	1r	.	.	73.375	.
=49	=49	=49	=49	=49	=49	=49
*>Letter>C	*>Letter>C	*>Letter>C	*>Letter>C	*>Letter>C	*>Letter>C	*>Letter>C
*>Label>Verse	*>Label>Verse	*>Label>Verse	*>Label>Verse	*>Label>Verse	*>Label>Verse	*>Label>Verse
1GM	G:maj	4r	.	.	74.908	newline
.	.	8r	.	.	.	.
.	.	8G	Well	.	.	.
.	.	4B	there's	.	.	.
.	.	4B	no	.	.	.
=50	=50	=50	=50	=50	=50	=50
1AM	A:maj/b7	4c#	ea-	(A	76.458	.
.	.	4A	-sy	a)	.	.
.	.	4A	way	.	.	.
.	.	4F#	to	.	.	.
=51	=51	=51	=51	=51	=51	=51
1GM	G:maj	4r	.	.	78.007	.
.	.	8r	.	.	.	.
.	.	8G	to	.	.	.
.	.	4B	un-	.	.	.
.	.	4d	-der-	.	.	.
=52	=52	=52	=52	=52	=52	=52
1AM	A:maj/b7	4.c#	-stand	D	79.557	.
.	.	4B	it	.	.	.
.	.	4A	_	.	.	.
.	.	8r	.	.	.	.
=53	=53	=53	=53	=53	=53	=53
1GM	G:maj	4r	.	.	81.107	newline
.	.	8G	there's	.	.	.
.	.	8G	so	.	.	.
.	.	8B	much	.	.	.
.	.	8B	of	.	.	.
.	.	4d	my	.	.	.
=54	=54	=54	=54	=54	=54	=54
1AM	A:maj/b7	4c#	life	.	82.651	.
.	.	8B	in	.	.	.
.	.	4B	her	.	.	.
.	.	4.A	_	.	.	.
=55	=55	=55	=55	=55	=55	=55
1GM	G:maj	4r	.	.	84.194	.
.	.	8G	and	.	.	.
.	.	8G	it's	.	.	.
.	.	4B	like	.	.	.
.	.	4d	I	.	.	.
=56	=56	=56	=56	=56	=56	=56
1AM	A:maj/b7	4.e	planned	D	85.737	.
.	.	8c#	it	.	.	.
.	.	8B	_	.	.	.
.	.	8A	_	.	.	.
.	.	4r	.	.	.	.
=57	=57	=57	=57	=57	=57	=57
1Am	A:min	2r	.	.	87.281	newline
.	.	4A	And	.	.	.
.	.	4B	it	.	.	.
=58	=58	=58	=58	=58	=58	=58
1Bmm	B:min7	8d	teach-	(A	88.82	.
.	.	8d	-es	a_	.	.
.	.	8B	you	.	.	.
.	.	8B	to	.	.	.
.	.	8A	ne-	.	.	.
.	.	8G	-ver	.	.	.
.	.	8E	let	.	.	.
.	.	[8B	go	E	.	.
=59	=59	=59	=59	=59	=59	=59
1Am	A:min/b3	2B]	_	.	90.359	.
.	.	4A	There's	.	.	.
.	.	8B	so	.	.	.
.	.	[8e	much	.	.	.
=60	=60	=60	=60	=60	=60	=60
1DM	D:sus2(b7)	8e]	_	.	91.898	.
.	.	4.d	love	.	.	.
.	.	8A	you'll	.	.	.
.	.	8G	ne-	.	.	.
.	.	8E	-ver	.	.	.
.	.	[8B	know	E	.	.
=61	=61	=61	=61	=61	=61	=61
1Am	A:min	2B]	_	.	93.437	newline
.	.	4A	She	.	.	.
.	.	4B	can	.	.	.
=62	=62	=62	=62	=62	=62	=62
1Bmm	B:min7	4d	reach	A	94.982	.
.	.	8B	you	.	.	.
.	.	8B	no	.	.	.
.	.	8A	mat-	.	.	.
.	.	8G	-ter	.	.	.
.	.	8E	how	.	.	.
.	.	[8B	far	F	.	.
=63	=63	=63	=63	=63	=63	=63
1Am	A:min/b3	2B]	_	.	96.527	.
.	.	4r	.	.	.	.
.	.	8e	Where-	.	.	.
.	.	[8e	-e-	.	.	.
=64	=64	=64	=64	=64	=64	=64
1DM	D:sus2(b7)	8e]	_	.	98.072	.
.	.	8d	-ver	.	.	.
.	.	8B	you	.	.	.
.	.	4d	are	F	.	.
.	.	16B	_	.	.	.
.	.	16A	_	.	.	.
.	.	4G	_	.	.	.
=65	=65	=65	=65	=65	=65	=65
*>Letter>A	*>Letter>A	*>Letter>A	*>Letter>A	*>Letter>A	*>Letter>A	*>Letter>A
*>Label>Chorus	*>Label>Chorus	*>Label>Chorus	*>Label>Chorus	*>Label>Chorus	*>Label>Chorus	*>Label>Chorus
1CM	C:maj	4.B	Two	.	99.616	newline
.	.	[8A	hearts	.	.	.
.	.	2A]	_	.	.	.
=66	=66	=66	=66	=66	=66	=66
1CM	C:maj	2r	.	.	101.16	.
.	.	8G	liv-	.	.	.
.	.	8G	-ing	.	.	.
.	.	4F#	in	.	.	.
=67	=67	=67	=67	=67	=67	=67
1DM	D:maj	2A	just	.	102.704	.
.	.	4.A	one	.	.	.
.	.	[8B	mind	C	.	.
=68	=68	=68	=68	=68	=68	=68
1GM	G:maj	2B]	_	.	104.248	.
.	.	6G	beat-	(A	.	.
.	.	6A	-ing	a)	.	.
.	.	6B	to	.	.	.
=69	=69	=69	=69	=69	=69	=69
1CM	C:maj	4.B	ge-	.	105.791	newline
.	.	[8A	-ther	.	.	.
.	.	2A]	_	.	.	.
=70	=70	=70	=70	=70	=70	=70
1CM	C:maj	2r	.	.	107.323	.
.	.	4G	'till	.	.	.
.	.	4F#	the	.	.	.
=71	=71	=71	=71	=71	=71	=71
1DM	D:maj	2A	end	.	108.855	.
.	.	4.d	of	.	.	.
.	.	[8B	time	C	.	.
=72	=72	=72	=72	=72	=72	=72
1GM	G:maj	2B]	_	.	110.387	.
.	.	6G	You	.	.	.
.	.	6A	know	.	.	.
.	.	6B	we're	.	.	.
=73	=73	=73	=73	=73	=73	=73
*>Letter>A	*>Letter>A	*>Letter>A	*>Letter>A	*>Letter>A	*>Letter>A	*>Letter>A
*>Label>Chorus	*>Label>Chorus	*>Label>Chorus	*>Label>Chorus	*>Label>Chorus	*>Label>Chorus	*>Label>Chorus
1CM	C:maj	4.B	two	.	111.919	newline
.	.	[8A	hearts	.	.	.
.	.	2A]	_	.	.	.
=74	=74	=74	=74	=74	=74	=74
1CM	C:maj	2r	.	.	113.466	.
.	.	8G	liv-	.	.	.
.	.	8G	-ing	.	.	.
.	.	4F#	in	.	.	.
=75	=75	=75	=75	=75	=75	=75
1DM	D:maj	2A	just	.	115.013	.
.	.	4.A	one	.	.	.
.	.	[8B	mind	C	.	.
=76	=76	=76	=76	=76	=76	=76
1GM	G:maj	4.B]	_	.	116.56	.
.	.	8E	To-	.	.	.
.	.	8G	-ge-	(G	.	.
.	.	8A	-ther	g)	.	.
.	.	4B	for	.	.	.
=77	=77	=77	=77	=77	=77	=77
1CM	C:maj	4.B	e-	(G	118.107	newline
.	.	[8A	-ver	g)	.	.
.	.	2A]	_	.	.	.
=78	=78	=78	=78	=78	=78	=78
1CM	C:maj	2r	.	.	119.651	.
.	.	4G	'till	.	.	.
.	.	4F#	the	.	.	.
=79	=79	=79	=79	=79	=79	=79
1DM	D:maj	2A	end	.	121.194	.
.	.	4.d	of	.	.	.
.	.	8B	time	C	.	.
=80	=80	=80	=80	=80	=80	=80
1GM	G:maj	8A	_	.	122.738	.
.	.	4.G	_	.	.	.
.	.	2r	.	.	.	.
=81	=81	=81	=81	=81	=81	=81
*>Letter>D	*>Letter>D	*>Letter>D	*>Letter>D	*>Letter>D	*>Letter>D	*>Letter>D
*>Label>Trans	*>Label>Trans	*>Label>Trans	*>Label>Trans	*>Label>Trans	*>Label>Trans	*>Label>Trans
2E-M	E-:maj/3	1r	.	.	124.281	newline
2A-M	A-:maj	.	.	.	125.048	.
=82	=82	=82	=82	=82	=82	=82
2FM	F:maj/3	1r	.	.	125.814	.
2B-M	B-:maj	.	.	.	126.581	.
=83	=83	=83	=83	=83	=83	=83
*>Letter>E	*>Letter>E	*>Letter>E	*>Letter>E	*>Letter>E	*>Letter>E	*>Letter>E
*>Label>Bridge	*>Label>Bridge	*>Label>Bridge	*>Label>Bridge	*>Label>Bridge	*>Label>Bridge	*>Label>Bridge
*G-:	*G-:	*G-:	*	*	*	*
1C-MM	C-:maj7	2r	.	.	127.348	newline
.	.	4r	.	.	.	.
.	.	8g-	she	(A	.	.
.	.	[8g-	knows	A)	.	.
=84	=84	=84	=84	=84	=84	=84
1A-mm	A-:min7	8g-]	_	.	128.892	.
.	.	8r	.	.	.	.
.	.	4r	.	.	.	.
.	.	4r	.	.	.	.
.	.	4b-	there'll	.	.	.
=85	=85	=85	=85	=85	=85	=85
1B-mm	B-:min7	4a-	al-	.	130.435	.
.	.	4a-	-ways	.	.	.
.	.	4.f	be	.	.	.
.	.	8B-	a	.	.	.
=86	=86	=86	=86	=86	=86	=86
1D-M	D-:maj/2	8d-	spe-	.	131.979	.
.	.	4d-	-cial	.	.	.
.	.	4B-	place	.	.	.
.	.	8d-	in	.	.	.
.	.	8a-	my	.	.	.
.	.	16a-	heart	F	.	.
.	.	16a	_	.	.	.
=87	=87	=87	=87	=87	=87	=87
1A-mm	A-:min7	16a-	_	.	133.523	newline
.	.	16g-	_	.	.	.
.	.	8a-	_	.	.	.
.	.	2r	.	.	.	.
.	.	8e-	for	.	.	.
.	.	8g-	her	.	.	.
=88	=88	=88	=88	=88	=88	=88
1A-mm	A-:min7	4e-	_	.	135.063	.
.	.	4r	.	.	.	.
.	.	2r	.	.	.	.
=89	=89	=89	=89	=89	=89	=89
1B-mm	B-:min7	4r	.	.	136.603	.
.	.	8e-	she	.	.	.
.	.	4.g-	knows	.	.	.
.	.	8e-	she	.	.	.
.	.	[8g-	knows	.	.	.
=90	=90	=90	=90	=90	=90	=90
1B-M	B-:sus4(b7)	4g-]	_	.	138.143	.
.	.	8e-	she	.	.	.
.	.	4g-	knows	.	.	.
.	.	8a-	_	.	.	.
.	.	4r	.	.	.	.
=91	=91	=91	=91	=91	=91	=91
1C-MM	C-:maj7	4.r	.	.	139.683	newline
.	.	4b-	Yeah	.	.	.
.	.	8r	.	.	.	.
.	.	8g-	she	.	.	.
.	.	[8g-	knows	.	.	.
=92	=92	=92	=92	=92	=92	=92
1A-mm	A-:min7	8g-]	_	.	141.225	.
.	.	8r	.	.	.	.
.	.	4r	.	.	.	.
.	.	4r	.	.	.	.
.	.	4b-	no	.	.	.
=93	=93	=93	=93	=93	=93	=93
1B-mm	B-:min7	4a-	mat-	.	142.768	.
.	.	4a-	-ter	.	.	.
.	.	2f	how	.	.	.
=94	=94	=94	=94	=94	=94	=94
1D-M	D-:maj/2	4d-	far	F	144.31	.
.	.	8d-	a-	.	.	.
.	.	4.B-	-part	F	.	.
.	.	8a-	we	.	.	.
.	.	16a-	are	F	.	.
.	.	16a	_	.	.	.
=95	=95	=95	=95	=95	=95	=95
1A-mm	A-:min7	16a-	_	.	145.853	newline
.	.	16g-	_	.	.	.
.	.	8a-	_	.	.	.
.	.	2r	.	.	.	.
.	.	8e-	she	(A	.	.
.	.	8g-	knows	A)	.	.
=96	=96	=96	=96	=96	=96	=96
1A-mm	A-:min7	4e-	_	.	147.395	.
.	.	4r	.	.	.	.
.	.	2r	.	.	.	.
=97	=97	=97	=97	=97	=97	=97
*G:	*G:	*G:	*	*	*	*
1Amm	A:min7	4r	.	.	148.937	.
.	.	8r	.	.	.	.
.	.	8e	I'm	.	.	.
.	.	8g	al-	.	.	.
.	.	8g	-ways	.	.	.
.	.	4a	right	C	.	.
=98	=98	=98	=98	=98	=98	=98
1DM	D:sus2(b7)	4b	there	.	150.479	.
.	.	8a	be-	.	.	.
.	.	4a	-side	C	.	.
.	.	8g	her	.	.	.
.	.	4e	We're	.	.	.
=99	=99	=99	=99	=99	=99	=99
*>Letter>A	*>Letter>A	*>Letter>A	*>Letter>A	*>Letter>A	*>Letter>A	*>Letter>A
*>Label>Chorus	*>Label>Chorus	*>Label>Chorus	*>Label>Chorus	*>Label>Chorus	*>Label>Chorus	*>Label>Chorus
1CM	C:maj	4.g	two	.	152.022	newline
.	.	8g	hearts	.	.	.
.	.	2e	_	.	.	.
=100	=100	=100	=100	=100	=100	=100
1CM	C:maj	4.r	.	.	153.559	.
.	.	8B	be-	.	.	.
.	.	8e	-liev-	.	.	.
.	.	8d	-ing	.	.	.
.	.	4B	in	.	.	.
=101	=101	=101	=101	=101	=101	=101
1DM	D:maj	2d	just	.	155.097	.
.	.	4.d	one	.	.	.
.	.	[8d	mind	C	.	.
=102	=102	=102	=102	=102	=102	=102
1GM	G:maj	2d]	_	.	156.634	.
.	.	6e	Beat-	(A	.	.
.	.	6g	-ing	a)	.	.
.	.	6g	to-	.	.	.
=103	=103	=103	=103	=103	=103	=103
1CM	C:maj	2a	-ge-	.	158.172	newline
.	.	8g	-ther	.	.	.
.	.	4.e	_	.	.	.
=104	=104	=104	=104	=104	=104	=104
1CM	C:maj	4.r	.	.	159.728	.
.	.	8d	un-	.	.	.
.	.	4e	-til	.	.	.
.	.	4g	the	.	.	.
=105	=105	=105	=105	=105	=105	=105
1DM	D:maj	2a	end	.	161.285	.
.	.	4.a	of	.	.	.
.	.	[8g	time	C	.	.
=106	=106	=106	=106	=106	=106	=106
1GM	G:maj	2g]	_	.	162.842	.
.	.	6b	You	.	.	.
.	.	6a	know	.	.	.
.	.	6g	we're	.	.	.
=107	=107	=107	=107	=107	=107	=107
*>Letter>A	*>Letter>A	*>Letter>A	*>Letter>A	*>Letter>A	*>Letter>A	*>Letter>A
*>Label>Chorus	*>Label>Chorus	*>Label>Chorus	*>Label>Chorus	*>Label>Chorus	*>Label>Chorus	*>Label>Chorus
1CM	C:maj	4.g	two	.	164.399	newline
.	.	16g	hearts	.	.	.
.	.	16f#	_	.	.	.
.	.	2e	_	.	.	.
=108	=108	=108	=108	=108	=108	=108
1CM	C:maj	4.r	.	.	165.941	.
.	.	8d	be-	.	.	.
.	.	8e	-liev-	.	.	.
.	.	8d	-ing	.	.	.
.	.	4B	in	.	.	.
=109	=109	=109	=109	=109	=109	=109
1DM	D:maj	2d	just	.	167.483	.
.	.	8e	liv-	.	.	.
.	.	8e	-ing	.	.	.
.	.	8g	in	.	.	.
.	.	[8g	just	.	.	.
=110	=110	=110	=110	=110	=110	=110
1GM	G:maj	8g]	_	.	169.026	.
.	.	4a	one	.	.	.
.	.	4g	mind	C	.	.
.	.	8r	.	.	.	.
.	.	4r	.	.	.	.
=111	=111	=111	=111	=111	=111	=111
1CM	C:maj	4r	.	.	170.568	newline
.	.	8r	.	.	.	.
.	.	8g	to-	.	.	.
.	.	8b	-geth-	(G	.	.
.	.	8a	-er	g)	.	.
.	.	8g	for-	.	.	.
.	.	[8g	-ev-	(G	.	.
=112	=112	=112	=112	=112	=112	=112
1CM	C:maj	8g]	_	.	172.105	.
.	.	4.e	-er	g)	.	.
.	.	4d	'till	.	.	.
.	.	4d	the	.	.	.
=113	=113	=113	=113	=113	=113	=113
1DM	D:maj	2a	end	.	173.643	.
.	.	4.dd	of	.	.	.
.	.	16b	time	C	.	.
.	.	16a	_	.	.	.
=114	=114	=114	=114	=114	=114	=114
1GM	G:maj	2g	_	.	175.18	.
.	.	6e	You	.	.	.
.	.	6g	know	.	.	.
.	.	6g	we're	.	.	.
=115	=115	=115	=115	=115	=115	=115
*>Letter>A	*>Letter>A	*>Letter>A	*>Letter>A	*>Letter>A	*>Letter>A	*>Letter>A
*>Label>Chorus	*>Label>Chorus	*>Label>Chorus	*>Label>Chorus	*>Label>Chorus	*>Label>Chorus	*>Label>Chorus
1CM	C:maj	4.g	two	.	176.717	newline
.	.	16g	hearts	.	.	.
.	.	16f#	_	.	.	.
.	.	2e	_	.	.	.
=116	=116	=116	=116	=116	=116	=116
1CM	C:maj	2r	.	.	178.256	.
.	.	8e	liv-	.	.	.
.	.	8d	-ing	.	.	.
.	.	4B	in	.	.	.
=117	=117	=117	=117	=117	=117	=117
1DM	D:maj	2d	just	.	179.794	.
.	.	8d	liv-	.	.	.
.	.	8d	-ing	.	.	.
.	.	8d	in	.	.	.
.	.	[8d	just	.	.	.
=118	=118	=118	=118	=118	=118	=118
1GM	G:maj	8d]	_	.	181.332	.
.	.	4d	one	.	.	.
.	.	4.d	mind	C	.	.
.	.	8r	.	.	.	.
.	.	[8d	just	.	.	.
=119	=119	=119	=119	=119	=119	=119
1CM	C:maj	8d]	_	.	182.871	newline
.	.	4e	one	.	.	.
.	.	2e	mind	C	.	.
.	.	[8A	just	.	.	.
=120	=120	=120	=120	=120	=120	=120
1CM	C:maj	8A]	_	.	184.411	.
.	.	4G	one	.	.	.
.	.	8B	mind	C	.	.
.	.	8A	_	.	.	.
.	.	8G	_	.	.	.
.	.	4E	_	.	.	.
=121	=121	=121	=121	=121	=121	=121
1DM	D:maj	2r	.	.	185.952	.
.	.	4d	'till	.	.	.
.	.	8d	the	.	.	.
.	.	[8d	end	.	.	.
=122	=122	=122	=122	=122	=122	=122
1GM	G:maj	8d]	_	.	187.493	.
.	.	4d	of	.	.	.
.	.	[8d	time	C	.	.
.	.	2d]	_	.	.	.
=123	=123	=123	=123	=123	=123	=123
*>Letter>A	*>Letter>A	*>Letter>A	*>Letter>A	*>Letter>A	*>Letter>A	*>Letter>A
*>Label>Fadeout	*>Label>Fadeout	*>Label>Fadeout	*>Label>Fadeout	*>Label>Fadeout	*>Label>Fadeout	*>Label>Fadeout
1CM	C:maj	4.e	Two	.	189.034	newline
.	.	[8d	hearts	.	.	.
.	.	2d]	_	.	.	.
=124	=124	=124	=124	=124	=124	=124
1CM	C:maj	1r	.	.	190.572	.
=125	=125	=125	=125	=125	=125	=125
1DM	D:maj	1r	.	.	192.111	.
=126	=126	=126	=126	=126	=126	=126
1GM	G:maj	1r	.	.	193.649	.
=127	=127	=127	=127	=127	=127	=127
1CM	C:maj	1r	.	.	195.188	newline
=128	=128	=128	=128	=128	=128	=128
1CM	C:maj	1r	.	.	196.516	.
=129	=129	=129	=129	=129	=129	=129
1DM	D:maj	1r	.	.	197.844	.
=130	=130	=130	=130	=130	=130	=130
1GM	G:maj	1r	.	.	199.172	.
=131	=131	=131	=131	=131	=131	=131
1CM	C:maj	1r	.	.	200.5	.
1r;	1r	r;	.	.	201.828	.
1r;	1r	r;	.	.	204.748	.
*-	*-	*-	*-	*-	*-	*-
!!!BillboardChartDate: 1989/02/25
!!!BillboardPeak: 1
!!!BillboardWeeksOnChart: 18
!!!COC: Phil Collins
!!!ENC: Nathaniel Condit-Schultz
!!!EST: Awating manual error checking and editing.
!!!OTL: Two Hearts
!!!RDF**chordsym: original McGill chord annotation + (implied pitch class set, with bass pitch in first position)
!!!RDF**harmony: **recip + pitch class of root + harmonic quality
!!!RDF**leadinstrument: original McGill primary instrumentation annotation
!!!RDF**phrase: newline = linebreak in original McGill transcription
!!!RDF**timestamp: McGill audio timestamp in seconds
!!!RDT: 2017/01/12/
!!!SampleActualRank: 48
!!!SampleID#: 0043
!!!SampleTargetRank: 50
!!!MBID: a28169ef-f537-4d08-bede-a080a3f550d7